X: 16170
T: Green Mountain Petronella
R: barndance
M: 4/4
K: Gmajor
|:GE|D2 G2 GF GE|D2 B2 B3 d|cBcB ABcd|e2 d2 d^c d2|
D2 G2 GFGE|D2 B2 B3 d|cBcA D2 AB|A2 GF G2:|
|:Bd|g2 g2 f2 f2|efge d2 d2|edef gfgd|B2 A2 A2 Bd|
g2 g2 fg f2|ef e2 d2 Bd|edef gfgd|B2 AF G2:|

